svg/border_right_variant.svg

<svg xmlns="http://www.w3.org/2000/svg" viewBox="0 0 24 24"><path d="M11 5h2V3h-2m4 2h2V3h-2m0 18h2v-2h-2m4 2h2V3h-2M3 9h2V7H3m0 10h2v-2H3m0-2h2v-2H3m8 10h2v-2h-2m-8 2h2v-2H3M7 5h2V3H7M3 5h2V3H3m4 18h2v-2H7z"/></svg>

<?xml version="1.0" encoding="UTF-8"?><!DOCTYPE svg PUBLIC "-//W3C//DTD SVG 1.1//EN" "http://www.w3.org/Graphics/SVG/1.1/DTD/svg11.dtd"><svg xmlns="http://www.w3.org/2000/svg" xmlns:xlink="http://www.w3.org/1999/xlink" version="1.1" id="mdi-border-right-variant" width="24" height="24" viewBox="0 0 24 24"><path d="M11,5H13V3H11M15,5H17V3H15M15,21H17V19H15M19,21H21V3H19M3,9H5V7H3M3,17H5V15H3M3,13H5V11H3M11,21H13V19H11M3,21H5V19H3M7,5H9V3H7M3,5H5V3H3M7,21H9V19H7V21Z" /></svg>
